packages/kaspersky-hexa-ui-icons/src/iconsSVGs/16/Pin.svg

<svg width="16" height="16" viewBox="0 0 16 16" fill="none" xmlns="http://www.w3.org/2000/svg">
<path fill-rule="evenodd" clip-rule="evenodd" d="M4.27061 0.949951C3.91162 0.949951 3.62061 1.24097 3.62061 1.59995C3.62061 1.95894 3.91162 2.24995 4.27061 2.24995H4.85421V6.56489C4.85421 7.38086 4.19632 8.04316 3.38204 8.05029H3.36875C3.00977 8.05029 2.71875 8.34131 2.71875 8.70029C2.71875 9.05928 3.00977 9.35035 3.36875 9.35035L3.38694 9.35029H7.3501V14.3999C7.3501 14.7589 7.64111 15.0499 8.0001 15.0499C8.35908 15.0499 8.6501 14.7589 8.6501 14.3999V9.35029H12.6313C12.9903 9.35029 13.2813 9.05928 13.2813 8.70029C13.2813 8.40862 13.0892 8.16181 12.8246 8.07952C12.8066 8.0739 12.7882 8.06906 12.7695 8.06501C12.7249 8.05535 12.6787 8.05026 12.6312 8.05026C11.8108 8.05026 11.1457 7.3852 11.1457 6.5648V2.24995H11.7293C12.0883 2.24995 12.3793 1.95894 12.3793 1.59995C12.3793 1.24097 12.0883 0.949951 11.7293 0.949951H4.27061ZM9.84574 2.24995H6.15421V6.56489C6.15421 7.11098 5.99706 7.62037 5.72553 8.05029H10.2745C10.0029 7.62035 9.84574 7.11093 9.84574 6.5648V2.24995Z" fill="black"/>
</svg>

<svg xmlns="http://www.w3.org/2000/svg" width="16" height="16" fill="none" viewBox="0 0 16 16"><path fill="#000" fill-rule="evenodd" d="M4.2706.95a.65.65 0 1 0 0 1.3h.5836v4.3149c0 .816-.6579 1.4783-1.4722 1.4854h-.0133a.65.65 0 0 0 0 1.3h3.9814v5.0496a.65.65 0 1 0 1.3 0V9.3503h3.9812a.65.65 0 1 0-.0001-1.3c-.8204 0-1.4855-.6651-1.4855-1.4855V2.25h.5836a.65.65 0 1 0 0-1.3zm5.5751 1.3H6.1542v4.3149a2.77 2.77 0 0 1-.4287 1.4854h4.549a2.77 2.77 0 0 1-.4288-1.4855z"/></svg>
